assets/icons/drive/removable-media.svg

<?xml version="1.0" encoding="UTF-8" standalone="no"?>
<svg viewBox="0 0 24 24" height="24" width="24" version="1.1" id="svg4" sodipodi:docname="removable-media.svg" inkscape:version="1.1 (ce6663b3b7, 2021-05-25)"
   xmlns:inkscape="http://www.inkscape.org/namespaces/inkscape"
   xmlns:sodipodi="http://sodipodi.sourceforge.net/DTD/sodipodi-0.dtd"
   xmlns="http://www.w3.org/2000/svg"
   xmlns:svg="http://www.w3.org/2000/svg">
   <defs id="defs8" />
   <sodipodi:namedview id="namedview6" pagecolor="#ffffff" bordercolor="#666666" borderopacity="1.0" inkscape:pageshadow="2" inkscape:pageopacity="0.0" inkscape:pagecheckerboard="0" showgrid="true" inkscape:zoom="14" inkscape:cx="-2.8571428" inkscape:cy="7.9642857" inkscape:window-width="1920" inkscape:window-height="1016" inkscape:window-x="0" inkscape:window-y="27" inkscape:window-maximized="1" inkscape:current-layer="svg4">
      <inkscape:grid type="xygrid" id="grid821" />
      <inkscape:grid type="xygrid" id="grid823" dotted="true" spacingx="0.5" spacingy="0.5" empspacing="10" />
   </sodipodi:namedview>
   <path id="path858" style="color:#000000;fill:#808080;-inkscape-stroke:none;fill-opacity:1" d="M 5.4550781 3 C 4.4864972 3.0089807 3.7372591 3.0732694 3.1171875 3.4453125 C 2.7038064 3.6933412 2.3972496 4.10122 2.2285156 4.6074219 C 2.0597817 5.1136238 2 5.722223 2 6.5 L 2 17.5 C 2 18.277777 2.059782 18.886376 2.2285156 19.392578 C 2.3972496 19.89878 2.7038064 20.306659 3.1171875 20.554688 C 3.9439497 21.050746 5.0000015 21 6.5 21 L 17.5 21 C 18.999998 21 20.05605 21.05074 20.882812 20.554688 C 21.296194 20.306659 21.60275 19.89878 21.771484 19.392578 C 21.940218 18.886376 22 18.277777 22 17.5 L 22 6.5 C 22 5.722223 21.94022 5.1136238 21.771484 4.6074219 C 21.60275 4.10122 21.296194 3.6933412 20.882812 3.4453125 C 20.056051 2.9492552 18.999998 3 17.5 3 L 6.5 3 C 6.1250004 3 5.7779384 2.9970064 5.4550781 3 z M 6.5 4 L 17.5 4 C 18.999998 4 19.943951 4.050746 20.367188 4.3046875 C 20.578806 4.4316585 20.70975 4.5862809 20.822266 4.9238281 C 20.934781 5.2613754 21 5.7777785 21 6.5 L 21 14 L 3 14 L 3 6.5 C 3 5.7777785 3.065219 5.2613754 3.1777344 4.9238281 C 3.2902501 4.5862809 3.4211942 4.4316585 3.6328125 4.3046875 C 4.056049 4.0507456 5.0000015 4 6.5 4 z M 3 15 L 21 15 L 21 17.5 C 21 18.222221 20.93478 18.738625 20.822266 19.076172 C 20.70975 19.413719 20.578807 19.568342 20.367188 19.695312 C 19.943952 19.949254 18.999999 20 17.5 20 L 6.5 20 C 5.0000015 20 4.056049 19.94925 3.6328125 19.695312 C 3.4211942 19.568342 3.2902501 19.413719 3.1777344 19.076172 C 3.0652186 18.738625 3 18.222221 3 17.5 L 3 15 z M 5 17 L 5 18 L 19 18 L 19 17 L 5 17 z " />
</svg>

<svg height="24" width="24" xmlns="http://www.w3.org/2000/svg"><path style="color:#000;fill:gray;-inkscape-stroke:none;fill-opacity:1" d="M5.455 3c-.969.009-1.718.073-2.338.445-.413.248-.72.656-.888 1.162C2.059 5.114 2 5.722 2 6.5v11c0 .778.06 1.386.229 1.893.168.506.475.914.888 1.162C3.944 21.05 5 21 6.5 21h11c1.5 0 2.556.05 3.383-.445.413-.248.72-.656.888-1.162.17-.507.229-1.115.229-1.893v-11c0-.778-.06-1.386-.229-1.893-.168-.506-.475-.914-.888-1.162C20.056 2.95 19 3 17.5 3h-11c-.375 0-.722-.003-1.045 0zM6.5 4h11c1.5 0 2.444.05 2.867.305.212.127.343.281.455.619.113.337.178.854.178 1.576V14H3V6.5c0-.722.065-1.239.178-1.576.112-.338.243-.492.455-.62C4.056 4.052 5 4 6.5 4zM3 15h18v2.5c0 .722-.065 1.239-.178 1.576-.112.338-.243.492-.455.62C19.944 19.948 19 20 17.5 20h-11c-1.5 0-2.444-.05-2.867-.305-.212-.127-.343-.281-.455-.619C3.065 18.74 3 18.222 3 17.5V15zm2 2v1h14v-1H5z"/></svg>
